report_00007_2020-12-11T15:55:29.892Z/uses-http2/comparison/line/5_vs_6.svg

<svg width="640" height="500" xmlns="http://www.w3.org/2000/svg" xmlns:xlink="http://www.w3.org/1999/xlink"><path fill="#fff" d="M0 0h640v500H0z"/><defs><path id="d" stroke-width=".222" stroke="currentColor" d="M-1-1h2v2h-2z"/><path id="b" stroke-width=".222" stroke="currentColor" d="M0-1.33l-1.33 2h2.66z"/><path id="f" stroke-width=".222" stroke="currentColor" d="M0 1.33L1.265.411.782-1.067l-1.564-.009-.483 1.487z"/><use xlink:href="#b" id="c" stroke="currentColor" transform="rotate(180)"/><use xlink:href="#d" id="e" stroke="currentColor" transform="rotate(45)"/><circle id="a" stroke-width=".222" stroke="currentColor" cx="0" cy="0" r="1"/></defs><g fill="none" color="#000" stroke="currentColor"><path stroke="#000" d="M53.9 420.1h9m552.1 0h-9"/><text transform="translate(45.6 424)" stroke="none" fill="#000" font-family="Arial" font-size="12" text-anchor="end"><tspan>0</tspan></text></g><g fill="none" color="#000" stroke="currentColor"><path stroke="#000" d="M53.9 358.5h9m552.1 0h-9"/><text transform="translate(45.6 362.4)" stroke="none" fill="#000" font-family="Arial" font-size="12" text-anchor="end"><tspan>50</tspan></text></g><g fill="none" color="#000" stroke="currentColor"><path stroke="#000" d="M53.9 297h9m552.1 0h-9"/><text transform="translate(45.6 300.9)" stroke="none" fill="#000" font-family="Arial" font-size="12" text-anchor="end"><tspan>100</tspan></text></g><g fill="none" color="#000" stroke="currentColor"><path stroke="#000" d="M53.9 235.4h9m552.1 0h-9"/><text transform="translate(45.6 239.3)" stroke="none" fill="#000" font-family="Arial" font-size="12" text-anchor="end"><tspan>150</tspan></text></g><g fill="none" color="#000" stroke="currentColor"><path stroke="#000" d="M53.9 173.8h9m552.1 0h-9"/><text transform="translate(45.6 177.7)" stroke="none" fill="#000" font-family="Arial" font-size="12" text-anchor="end"><tspan>200</tspan></text></g><g fill="none" color="#000" stroke="currentColor"><path stroke="#000" d="M53.9 112.2h9m552.1 0h-9"/><text transform="translate(45.6 116.1)" stroke="none" fill="#000" font-family="Arial" font-size="12" text-anchor="end"><tspan>250</tspan></text></g><g fill="none" color="#000" stroke="currentColor"><path stroke="#000" d="M53.9 50.6h9m552.1 0h-9"/><text transform="translate(45.6 54.5)" stroke="none" fill="#000" font-family="Arial" font-size="12" text-anchor="end"><tspan>300</tspan></text></g><g fill="none" color="#000" stroke="currentColor"><path stroke="#000" d="M53.9 428v-9m0-400.9v9"/><text transform="translate(53.9 449.9)" stroke="none" fill="#000" font-family="Arial" font-size="12" text-anchor="middle"><tspan>0</tspan></text></g><g fill="none" color="#000" stroke="currentColor"><path stroke="#000" d="M110.6 428v-9m0-400.9v9"/><text transform="translate(110.6 449.9)" stroke="none" fill="#000" font-family="Arial" font-size="12" text-anchor="middle"><tspan>10</tspan></text></g><g fill="none" color="#000" stroke="currentColor"><path stroke="#000" d="M167.3 428v-9m0-400.9v9"/><text transform="translate(167.3 449.9)" stroke="none" fill="#000" font-family="Arial" font-size="12" text-anchor="middle"><tspan>20</tspan></text></g><g fill="none" color="#000" stroke="currentColor"><path stroke="#000" d="M223.9 428v-9m0-400.9v9"/><text transform="translate(223.9 449.9)" stroke="none" fill="#000" font-family="Arial" font-size="12" text-anchor="middle"><tspan>30</tspan></text></g><g fill="none" color="#000" stroke="currentColor"><path stroke="#000" d="M280.6 428v-9m0-400.9v9"/><text transform="translate(280.6 449.9)" stroke="none" fill="#000" font-family="Arial" font-size="12" text-anchor="middle"><tspan>40</tspan></text></g><g fill="none" color="#000" stroke="currentColor"><path stroke="#000" d="M337.3 428v-9m0-400.9v9"/><text transform="translate(337.3 449.9)" stroke="none" fill="#000" font-family="Arial" font-size="12" text-anchor="middle"><tspan>50</tspan></text></g><g fill="none" color="#000" stroke="currentColor"><path stroke="#000" d="M394 428v-9m0-400.9v9"/><text transform="translate(394 449.9)" stroke="none" fill="#000" font-family="Arial" font-size="12" text-anchor="middle"><tspan>60</tspan></text></g><g fill="none" color="#000" stroke="currentColor"><path stroke="#000" d="M450.6 428v-9m0-400.9v9"/><text transform="translate(450.6 449.9)" stroke="none" fill="#000" font-family="Arial" font-size="12" text-anchor="middle"><tspan>70</tspan></text></g><g fill="none" color="#000" stroke="currentColor"><path stroke="#000" d="M507.3 428v-9m0-400.9v9"/><text transform="translate(507.3 449.9)" stroke="none" fill="#000" font-family="Arial" font-size="12" text-anchor="middle"><tspan>80</tspan></text></g><g fill="none" color="#000" stroke="currentColor"><path stroke="#000" d="M564 428v-9m0-400.9v9"/><text transform="translate(564 449.9)" stroke="none" fill="#000" font-family="Arial" font-size="12" text-anchor="middle"><tspan>90</tspan></text></g><path stroke="#000" d="M53.9 18.1V428H615V18.1H53.9z" fill="none" color="#000"/><text transform="translate(433.7 467.9)" stroke="none" fill="#000" font-family="Arial" font-size="12" text-anchor="end" color="#000"><tspan>pages+cached+noexternal</tspan></text><path stroke="#9400D3" d="M442 464h42.2M53.9 210.7l5.7 209.4 5.6-209.4 5.7 209.4 5.7-221.7 5.6 184.8h5.7l5.7-172.5h22.6l5.7 172.5 5.7 12.3h11.3l5.7-184.8H172.9l5.7 172.5 5.7 12.3 5.6-184.8 5.7 209.4 5.7-209.4h17l5.6 172.5h11.4l5.6 12.3 5.7-184.8 5.7 172.5 5.6-172.5 5.7 172.5 5.7-172.5h5.6l5.7 184.8 5.7-184.8 5.6 209.4h5.7l5.7-24.6h5.6l5.7-184.8 5.7 184.8h11.3L337.3 26l5.7 184.7 5.6 172.5 5.7-172.5h5.7l5.6 184.8 5.7-184.8 5.7 172.5 5.6-172.5h5.7l5.7 184.8 5.6-184.8h5.7l5.7 172.5 5.6 36.9 5.7-209.4 5.7 172.5L433.6 26l5.7 369.5 5.7-184.8 5.6 184.8 5.7 24.6L462 26l5.6 369.5h5.7l5.7-184.8h5.6l5.7 184.8 5.7 24.6 5.6-24.6 5.7-184.8L513 26l5.6 369.5h5.7l5.7-197.1 5.7 12.3 5.6 209.4 5.7-209.4h5.7l5.6 209.4h5.7l5.7-24.6h17l5.6 24.6 5.7-36.9 5.7-172.5h5.6l5.7 172.5" fill="none" color="#000"/><text transform="translate(433.7 485.9)" stroke="none" fill="#000" font-family="Arial" font-size="12" text-anchor="end" color="#000"><tspan>pages+cached+noexternal+nofonts</tspan></text><path stroke="#009E73" d="M442 482h42.2M53.9 223l5.7 184.8 5.6 12.3 5.7-12.3L76.6 223l5.6 184.8L87.9 223l5.7 12.4 5.6-12.4 5.7 184.8 5.7-172.4 5.6 172.4 5.7-184.8h5.7l5.6 12.4 5.7-12.4 5.7 12.4 5.7-184.8 5.6 184.8 5.7-12.4h5.7l5.6 184.8 5.7-12.3 5.7-160.1h5.6l5.7-12.4 5.7 12.4 5.6-12.4h5.7l5.7 12.4 5.6-12.4h5.7l5.7 12.4 5.6-12.4h5.7l5.7 184.8h17l5.6-184.8 5.7 184.8 5.7-184.8 5.6 184.8 5.7-172.4h5.7l5.6-12.4h5.7l5.7 184.8 5.6-184.8h11.4l5.7 12.4 5.6-12.4H360l5.6 12.4 5.7-12.4h17l5.7 184.8h5.6l5.7 12.3L411 223h5.6l5.7 184.8L428 223l5.6 12.4 5.7-12.4 5.7 12.4 5.6 172.4h5.7l5.7-172.4 5.6 172.4 5.7-184.8 5.7 12.4 5.6 172.4 5.7 12.3L496 223l5.6 197.1 5.7-184.7h5.7l5.6 172.4H530l5.7-184.8h5.6l5.7 184.8 5.7 12.3 5.6-12.3 5.7 12.3 5.7-12.3 5.6-172.4 5.7 184.7 5.7-197.1h5.6l5.7 12.4 5.7 172.4 5.6-172.4L615 223" fill="none" color="#000"/><g fill="none" color="#000" stroke="currentColor"><path stroke="#000" d="M53.9 18.1V428H615V18.1H53.9z"/></g></svg>

<?xml version="1.0" encoding="utf-8"  standalone="no"?>
<svg 
 width="640" height="500"
 viewBox="0 0 640 500"
 xmlns="http://www.w3.org/2000/svg"
 xmlns:xlink="http://www.w3.org/1999/xlink"
>

<title>Gnuplot</title>
<desc>Produced by GNUPLOT 5.4 patchlevel 0 </desc>

<g id="gnuplot_canvas">

<rect x="0" y="0" width="640" height="500" fill="#ffffff"/>
<defs>

	<circle id='gpDot' r='0.5' stroke-width='0.5' stroke='currentColor'/>
	<path id='gpPt0' stroke-width='0.222' stroke='currentColor' d='M-1,0 h2 M0,-1 v2'/>
	<path id='gpPt1' stroke-width='0.222' stroke='currentColor' d='M-1,-1 L1,1 M1,-1 L-1,1'/>
	<path id='gpPt2' stroke-width='0.222' stroke='currentColor' d='M-1,0 L1,0 M0,-1 L0,1 M-1,-1 L1,1 M-1,1 L1,-1'/>
	<rect id='gpPt3' stroke-width='0.222' stroke='currentColor' x='-1' y='-1' width='2' height='2'/>
	<rect id='gpPt4' stroke-width='0.222' stroke='currentColor' fill='currentColor' x='-1' y='-1' width='2' height='2'/>
	<circle id='gpPt5' stroke-width='0.222' stroke='currentColor' cx='0' cy='0' r='1'/>
	<use xlink:href='#gpPt5' id='gpPt6' fill='currentColor' stroke='none'/>
	<path id='gpPt7' stroke-width='0.222' stroke='currentColor' d='M0,-1.33 L-1.33,0.67 L1.33,0.67 z'/>
	<use xlink:href='#gpPt7' id='gpPt8' fill='currentColor' stroke='none'/>
	<use xlink:href='#gpPt7' id='gpPt9' stroke='currentColor' transform='rotate(180)'/>
	<use xlink:href='#gpPt9' id='gpPt10' fill='currentColor' stroke='none'/>
	<use xlink:href='#gpPt3' id='gpPt11' stroke='currentColor' transform='rotate(45)'/>
	<use xlink:href='#gpPt11' id='gpPt12' fill='currentColor' stroke='none'/>
	<path id='gpPt13' stroke-width='0.222' stroke='currentColor' d='M0,1.330 L1.265,0.411 L0.782,-1.067 L-0.782,-1.076 L-1.265,0.411 z'/>
	<use xlink:href='#gpPt13' id='gpPt14' fill='currentColor' stroke='none'/>
	<filter id='textbox' filterUnits='objectBoundingBox' x='0' y='0' height='1' width='1'>
	  <feFlood flood-color='#FFFFFF' flood-opacity='1' result='bgnd'/>
	  <feComposite in='SourceGraphic' in2='bgnd' operator='atop'/>
	</filter>
	<filter id='greybox' filterUnits='objectBoundingBox' x='0' y='0' height='1' width='1'>
	  <feFlood flood-color='lightgrey' flood-opacity='1' result='grey'/>
	  <feComposite in='SourceGraphic' in2='grey' operator='atop'/>
	</filter>
</defs>
<g fill="none" color="#FFFFFF" stroke="black" stroke-width="1.00" stroke-linecap="butt" stroke-linejoin="miter">
</g>
<g fill="none" color="black" stroke="currentColor" stroke-width="1.00" stroke-linecap="butt" stroke-linejoin="miter">
	<path stroke='black'  d='M53.9,420.1 L62.9,420.1 M615.0,420.1 L606.0,420.1  '/>	<g transform="translate(45.6,424.0)" stroke="none" fill="black" font-family="Arial" font-size="12.00"  text-anchor="end">
		<text><tspan font-family="Arial" > 0</tspan></text>
	</g>
</g>
<g fill="none" color="black" stroke="currentColor" stroke-width="1.00" stroke-linecap="butt" stroke-linejoin="miter">
	<path stroke='black'  d='M53.9,358.5 L62.9,358.5 M615.0,358.5 L606.0,358.5  '/>	<g transform="translate(45.6,362.4)" stroke="none" fill="black" font-family="Arial" font-size="12.00"  text-anchor="end">
		<text><tspan font-family="Arial" > 50</tspan></text>
	</g>
</g>
<g fill="none" color="black" stroke="currentColor" stroke-width="1.00" stroke-linecap="butt" stroke-linejoin="miter">
	<path stroke='black'  d='M53.9,297.0 L62.9,297.0 M615.0,297.0 L606.0,297.0  '/>	<g transform="translate(45.6,300.9)" stroke="none" fill="black" font-family="Arial" font-size="12.00"  text-anchor="end">
		<text><tspan font-family="Arial" > 100</tspan></text>
	</g>
</g>
<g fill="none" color="black" stroke="currentColor" stroke-width="1.00" stroke-linecap="butt" stroke-linejoin="miter">
	<path stroke='black'  d='M53.9,235.4 L62.9,235.4 M615.0,235.4 L606.0,235.4  '/>	<g transform="translate(45.6,239.3)" stroke="none" fill="black" font-family="Arial" font-size="12.00"  text-anchor="end">
		<text><tspan font-family="Arial" > 150</tspan></text>
	</g>
</g>
<g fill="none" color="black" stroke="currentColor" stroke-width="1.00" stroke-linecap="butt" stroke-linejoin="miter">
	<path stroke='black'  d='M53.9,173.8 L62.9,173.8 M615.0,173.8 L606.0,173.8  '/>	<g transform="translate(45.6,177.7)" stroke="none" fill="black" font-family="Arial" font-size="12.00"  text-anchor="end">
		<text><tspan font-family="Arial" > 200</tspan></text>
	</g>
</g>
<g fill="none" color="black" stroke="currentColor" stroke-width="1.00" stroke-linecap="butt" stroke-linejoin="miter">
	<path stroke='black'  d='M53.9,112.2 L62.9,112.2 M615.0,112.2 L606.0,112.2  '/>	<g transform="translate(45.6,116.1)" stroke="none" fill="black" font-family="Arial" font-size="12.00"  text-anchor="end">
		<text><tspan font-family="Arial" > 250</tspan></text>
	</g>
</g>
<g fill="none" color="black" stroke="currentColor" stroke-width="1.00" stroke-linecap="butt" stroke-linejoin="miter">
	<path stroke='black'  d='M53.9,50.6 L62.9,50.6 M615.0,50.6 L606.0,50.6  '/>	<g transform="translate(45.6,54.5)" stroke="none" fill="black" font-family="Arial" font-size="12.00"  text-anchor="end">
		<text><tspan font-family="Arial" > 300</tspan></text>
	</g>
</g>
<g fill="none" color="black" stroke="currentColor" stroke-width="1.00" stroke-linecap="butt" stroke-linejoin="miter">
	<path stroke='black'  d='M53.9,428.0 L53.9,419.0 M53.9,18.1 L53.9,27.1  '/>	<g transform="translate(53.9,449.9)" stroke="none" fill="black" font-family="Arial" font-size="12.00"  text-anchor="middle">
		<text><tspan font-family="Arial" > 0</tspan></text>
	</g>
</g>
<g fill="none" color="black" stroke="currentColor" stroke-width="1.00" stroke-linecap="butt" stroke-linejoin="miter">
	<path stroke='black'  d='M110.6,428.0 L110.6,419.0 M110.6,18.1 L110.6,27.1  '/>	<g transform="translate(110.6,449.9)" stroke="none" fill="black" font-family="Arial" font-size="12.00"  text-anchor="middle">
		<text><tspan font-family="Arial" > 10</tspan></text>
	</g>
</g>
<g fill="none" color="black" stroke="currentColor" stroke-width="1.00" stroke-linecap="butt" stroke-linejoin="miter">
	<path stroke='black'  d='M167.3,428.0 L167.3,419.0 M167.3,18.1 L167.3,27.1  '/>	<g transform="translate(167.3,449.9)" stroke="none" fill="black" font-family="Arial" font-size="12.00"  text-anchor="middle">
		<text><tspan font-family="Arial" > 20</tspan></text>
	</g>
</g>
<g fill="none" color="black" stroke="currentColor" stroke-width="1.00" stroke-linecap="butt" stroke-linejoin="miter">
	<path stroke='black'  d='M223.9,428.0 L223.9,419.0 M223.9,18.1 L223.9,27.1  '/>	<g transform="translate(223.9,449.9)" stroke="none" fill="black" font-family="Arial" font-size="12.00"  text-anchor="middle">
		<text><tspan font-family="Arial" > 30</tspan></text>
	</g>
</g>
<g fill="none" color="black" stroke="currentColor" stroke-width="1.00" stroke-linecap="butt" stroke-linejoin="miter">
	<path stroke='black'  d='M280.6,428.0 L280.6,419.0 M280.6,18.1 L280.6,27.1  '/>	<g transform="translate(280.6,449.9)" stroke="none" fill="black" font-family="Arial" font-size="12.00"  text-anchor="middle">
		<text><tspan font-family="Arial" > 40</tspan></text>
	</g>
</g>
<g fill="none" color="black" stroke="currentColor" stroke-width="1.00" stroke-linecap="butt" stroke-linejoin="miter">
	<path stroke='black'  d='M337.3,428.0 L337.3,419.0 M337.3,18.1 L337.3,27.1  '/>	<g transform="translate(337.3,449.9)" stroke="none" fill="black" font-family="Arial" font-size="12.00"  text-anchor="middle">
		<text><tspan font-family="Arial" > 50</tspan></text>
	</g>
</g>
<g fill="none" color="black" stroke="currentColor" stroke-width="1.00" stroke-linecap="butt" stroke-linejoin="miter">
	<path stroke='black'  d='M394.0,428.0 L394.0,419.0 M394.0,18.1 L394.0,27.1  '/>	<g transform="translate(394.0,449.9)" stroke="none" fill="black" font-family="Arial" font-size="12.00"  text-anchor="middle">
		<text><tspan font-family="Arial" > 60</tspan></text>
	</g>
</g>
<g fill="none" color="black" stroke="currentColor" stroke-width="1.00" stroke-linecap="butt" stroke-linejoin="miter">
	<path stroke='black'  d='M450.6,428.0 L450.6,419.0 M450.6,18.1 L450.6,27.1  '/>	<g transform="translate(450.6,449.9)" stroke="none" fill="black" font-family="Arial" font-size="12.00"  text-anchor="middle">
		<text><tspan font-family="Arial" > 70</tspan></text>
	</g>
</g>
<g fill="none" color="black" stroke="currentColor" stroke-width="1.00" stroke-linecap="butt" stroke-linejoin="miter">
	<path stroke='black'  d='M507.3,428.0 L507.3,419.0 M507.3,18.1 L507.3,27.1  '/>	<g transform="translate(507.3,449.9)" stroke="none" fill="black" font-family="Arial" font-size="12.00"  text-anchor="middle">
		<text><tspan font-family="Arial" > 80</tspan></text>
	</g>
</g>
<g fill="none" color="black" stroke="currentColor" stroke-width="1.00" stroke-linecap="butt" stroke-linejoin="miter">
	<path stroke='black'  d='M564.0,428.0 L564.0,419.0 M564.0,18.1 L564.0,27.1  '/>	<g transform="translate(564.0,449.9)" stroke="none" fill="black" font-family="Arial" font-size="12.00"  text-anchor="middle">
		<text><tspan font-family="Arial" > 90</tspan></text>
	</g>
</g>
<g fill="none" color="black" stroke="currentColor" stroke-width="1.00" stroke-linecap="butt" stroke-linejoin="miter">
</g>
<g fill="none" color="black" stroke="currentColor" stroke-width="1.00" stroke-linecap="butt" stroke-linejoin="miter">
	<path stroke='black'  d='M53.9,18.1 L53.9,428.0 L615.0,428.0 L615.0,18.1 L53.9,18.1 Z  '/></g>
<g fill="none" color="black" stroke="currentColor" stroke-width="1.00" stroke-linecap="butt" stroke-linejoin="miter">
</g>
	<g id="gnuplot_plot_1" ><title>pages+cached+noexternal</title>
<g fill="none" color="black" stroke="currentColor" stroke-width="1.00" stroke-linecap="butt" stroke-linejoin="miter">
	<g transform="translate(433.7,467.9)" stroke="none" fill="black" font-family="Arial" font-size="12.00"  text-anchor="end">
		<text><tspan font-family="Arial" >pages+cached+noexternal</tspan></text>
	</g>
</g>
<g fill="none" color="black" stroke="currentColor" stroke-width="1.00" stroke-linecap="butt" stroke-linejoin="miter">
	<path stroke='rgb(148,   0, 211)'  d='M442.0,464.0 L484.2,464.0 M53.9,210.7 L59.6,420.1 L65.2,210.7 L70.9,420.1 L76.6,198.4 L82.2,383.2
		L87.9,383.2 L93.6,210.7 L99.2,210.7 L104.9,210.7 L110.6,210.7 L116.2,210.7 L121.9,383.2 L127.6,395.5
		L133.2,395.5 L138.9,395.5 L144.6,210.7 L150.3,210.7 L155.9,210.7 L161.6,210.7 L167.3,210.7 L172.9,210.7
		L178.6,383.2 L184.3,395.5 L189.9,210.7 L195.6,420.1 L201.3,210.7 L206.9,210.7 L212.6,210.7 L218.3,210.7
		L223.9,383.2 L229.6,383.2 L235.3,383.2 L240.9,395.5 L246.6,210.7 L252.3,383.2 L257.9,210.7 L263.6,383.2
		L269.3,210.7 L274.9,210.7 L280.6,395.5 L286.3,210.7 L291.9,420.1 L297.6,420.1 L303.3,395.5 L308.9,395.5
		L314.6,210.7 L320.3,395.5 L325.9,395.5 L331.6,395.5 L337.3,26.0 L343.0,210.7 L348.6,383.2 L354.3,210.7
		L360.0,210.7 L365.6,395.5 L371.3,210.7 L377.0,383.2 L382.6,210.7 L388.3,210.7 L394.0,395.5 L399.6,210.7
		L405.3,210.7 L411.0,383.2 L416.6,420.1 L422.3,210.7 L428.0,383.2 L433.6,26.0 L439.3,395.5 L445.0,210.7
		L450.6,395.5 L456.3,420.1 L462.0,26.0 L467.6,395.5 L473.3,395.5 L479.0,210.7 L484.6,210.7 L490.3,395.5
		L496.0,420.1 L501.6,395.5 L507.3,210.7 L513.0,26.0 L518.6,395.5 L524.3,395.5 L530.0,198.4 L535.7,210.7
		L541.3,420.1 L547.0,210.7 L552.7,210.7 L558.3,420.1 L564.0,420.1 L569.7,395.5 L575.3,395.5 L581.0,395.5
		L586.7,395.5 L592.3,420.1 L598.0,383.2 L603.7,210.7 L609.3,210.7 L615.0,383.2  '/></g>
	</g>
	<g id="gnuplot_plot_2" ><title>pages+cached+noexternal+nofonts</title>
<g fill="none" color="black" stroke="currentColor" stroke-width="1.00" stroke-linecap="butt" stroke-linejoin="miter">
	<g transform="translate(433.7,485.9)" stroke="none" fill="black" font-family="Arial" font-size="12.00"  text-anchor="end">
		<text><tspan font-family="Arial" >pages+cached+noexternal+nofonts</tspan></text>
	</g>
</g>
<g fill="none" color="black" stroke="currentColor" stroke-width="1.00" stroke-linecap="butt" stroke-linejoin="miter">
	<path stroke='rgb(  0, 158, 115)'  d='M442.0,482.0 L484.2,482.0 M53.9,223.0 L59.6,407.8 L65.2,420.1 L70.9,407.8 L76.6,223.0 L82.2,407.8
		L87.9,223.0 L93.6,235.4 L99.2,223.0 L104.9,407.8 L110.6,235.4 L116.2,407.8 L121.9,223.0 L127.6,223.0
		L133.2,235.4 L138.9,223.0 L144.6,235.4 L150.3,50.6 L155.9,235.4 L161.6,223.0 L167.3,223.0 L172.9,407.8
		L178.6,395.5 L184.3,235.4 L189.9,235.4 L195.6,223.0 L201.3,235.4 L206.9,223.0 L212.6,223.0 L218.3,235.4
		L223.9,223.0 L229.6,223.0 L235.3,235.4 L240.9,223.0 L246.6,223.0 L252.3,407.8 L257.9,407.8 L263.6,407.8
		L269.3,407.8 L274.9,223.0 L280.6,407.8 L286.3,223.0 L291.9,407.8 L297.6,235.4 L303.3,235.4 L308.9,223.0
		L314.6,223.0 L320.3,407.8 L325.9,223.0 L331.6,223.0 L337.3,223.0 L343.0,235.4 L348.6,223.0 L354.3,223.0
		L360.0,223.0 L365.6,235.4 L371.3,223.0 L377.0,223.0 L382.6,223.0 L388.3,223.0 L394.0,407.8 L399.6,407.8
		L405.3,420.1 L411.0,223.0 L416.6,223.0 L422.3,407.8 L428.0,223.0 L433.6,235.4 L439.3,223.0 L445.0,235.4
		L450.6,407.8 L456.3,407.8 L462.0,235.4 L467.6,407.8 L473.3,223.0 L479.0,235.4 L484.6,407.8 L490.3,420.1
		L496.0,223.0 L501.6,420.1 L507.3,235.4 L513.0,235.4 L518.6,407.8 L524.3,407.8 L530.0,407.8 L535.7,223.0
		L541.3,223.0 L547.0,407.8 L552.7,420.1 L558.3,407.8 L564.0,420.1 L569.7,407.8 L575.3,235.4 L581.0,420.1
		L586.7,223.0 L592.3,223.0 L598.0,235.4 L603.7,407.8 L609.3,235.4 L615.0,223.0  '/></g>
	</g>
<g fill="none" color="#FFFFFF" stroke="rgb(  0, 158, 115)" stroke-width="2.00" stroke-linecap="butt" stroke-linejoin="miter">
</g>
<g fill="none" color="black" stroke="currentColor" stroke-width="2.00" stroke-linecap="butt" stroke-linejoin="miter">
</g>
<g fill="none" color="black" stroke="black" stroke-width="1.00" stroke-linecap="butt" stroke-linejoin="miter">
</g>
<g fill="none" color="black" stroke="currentColor" stroke-width="1.00" stroke-linecap="butt" stroke-linejoin="miter">
	<path stroke='black'  d='M53.9,18.1 L53.9,428.0 L615.0,428.0 L615.0,18.1 L53.9,18.1 Z  '/></g>
<g fill="none" color="black" stroke="currentColor" stroke-width="1.00" stroke-linecap="butt" stroke-linejoin="miter">
</g>
</g>
</svg>
